X: 06012
T: COLIN'S REEL
C: Bob McQuillen 4 Nov 82
B: Bob's Note Book 6 #12
%R: reel
Z: 2021 John Chambers <jc:trillian.mit.edu>
M: C
L: 1/8
K: D
FE \
| DFAd BAFE | FDDE DFAd | fafd edfd | AdBd AFEF |
| DFAd BAFE | FDDE DFAd | fdef d2dB | ABdf ed :|
|: de \
| fafd eddB | ABdf edde | fafd edBd | ABde feef |
| dfaf edde | f2fe dBBd | efdB A2dB | AFEF D2 :|
%%begintext align
%% I'm so glad I finally
%% got this tune for Colin Quigley - Those of you who
%% have heard him play know what I mean when
%% I say he's a great fiddler -- I'll never forget that
%% wonderful summer (week) at Pinewoods, Colin, with you
%% and Emile.                     Best Wishes always --
%%endtext

%%sep 1 1 500

%%sep 1 1 500

